X: 312
M: C
L: 1/8
K: D
V: 1
g |\
f>da>d c<ee>g | f>d (e/d/c/B/) cAAg |\
f>df<a g<be>g | f<ae>g f<dd>g |
f>da>d ceeg | f>d (e/d/c/B/) cAAG |\
V: 2 clef=bass middle=d
z |
[a2f2d2][a2f2d2] [b2g2d2][b2g2d2] | [a2f2d2][a2f2d2] [a2e2c2][a2e2c2] |\
[a2f2d2][a2f2d2] [a2e2c2][a2e2c2] | d2A2 D2D :|
z |
[a2f2d2][a2f2d2] [a2e2c2][a2e2c2] | [a2f2d2][a2f2d2] [a2e2c2][a2e2c2] |\
[a2f2d2][a2d2f2] [b2g2d2][a2f2d2] | d'2a2 d2d2 |
[a2f2d2][a2f2d2] [a2e2c2][a2e2c2] | [a2f2d2][a2f2d2] [a2e2c2][a2e2c2] |\
d2D2 a2a2 | d2A2 D2d |]


